X:75
T:Three Sea Captains
R:set dance
M:6/8
L:1/8
K:G
D|~G3 BGB|c2A F2D|GDG BGB|d2B GAB|
cec A2c|BdB G2B|A2B c2B|ABG FED|
GDG BGB|c2A F2D|GDG BGB|d2B G2B|
cec Adc|BdB GF=F|EcB AGF|~G3 G2:|
d|gfg dcB|ABc def|gfg dBd|e2c A2d|
g2a bge|f2g afd|e2f g2f|ed^c d3|
c2d ecA|B2c dBG|A2B c2B|ABG FED|
GDG BGB|c2A F2D|~G3 BGB|d2B G3|
cec A3|BdB G3|EcB AGF|~G3 G2:|
